X:1
T:Vocalise
T:Vocalise
T: 
T: 
T:Rachmaninov 
T:Op. 34 No. 14
C:Rachmaninov
%%score 1 { ( 2 5 6 ) | ( 3 4 7 ) }
L:1/8
Q:1/8=102
M:4/4
K:Eb
V:1 treble transpose=-9 nm="Alto Saxophone" snm="A. Sax."
V:2 treble nm="Piano" snm="Pno."
V:5 treble 
V:6 treble 
V:3 bass 
V:4 bass 
V:7 bass 
V:1
[K:G]"^\n""^Lentamente. Molto cantabile" z2 z (c'/b/ c'3) a/b/ |:[M:2/4] c'b/a/ b(g/a/ | %2
[M:4/4] b4-) ba/g/ a(=f/g/ | a4-) a(g/=f/ e-e/d/ | e-e/=f/ e2- e/) (f/a/c'/ d'-d'/e'/ | %5
 c'3) _b Ta2"^(ad lib.)" (^g{_g_a}=a-) | a3 z2"^poco piu animato" (a2 g | f4-) f(fga | %8
 !tenuto!gg/a/ b3) (e/f/ ga/b/ | ^c'4-) c'(^abc' | !tenuto!^c'!tenuto!b/!tenuto!c'/ d'3) (c'ba | %11
 b3) (a/^g/ a3) (e/f/ | ^ga/b/ c'3) (ba=g- | gf/g/ a3) (g/f/ gd/e/ | fg/a/ _b3) (ag=f | %15
 e4 ^d3) (a |[M:2/4]"^rit." b-b/a/ g/a/f |1[M:4/4] e6) z2 | z2 z (c'/b/ c'3) (a/b/ :|2 %19
 e4) z (b2 a |: !tenuto!^g2 b3) (b2 a | !tenuto!^g2 b3) (c'ba | %22
 ga"^poco rit."bg e2- e/) (f/^g/d'/ | c'4)!mf! z"^a tempo" (c'2 b | a2 c'3) (c'ba/g/ | %25
 a2 c'3)!f! (d'c'b | abc'a =f2- f/) (g/a/c'/ | d'4 e3) (d' | e'- e'4 e'd'd' | %29
 ^c'b/c'/ d'3) (=c'ba | ^g^^f/g/ a3) (=g2 =f |[M:2/4] ee/d/ c/d/B |1[M:4/4] A3) z2 (b2 a) :|2 %33
 A4 z2 ce ||[M:2/4] ed/e/ =fe/f/ |[M:4/4] g3 f/g/ (a2 b2) | c'3 d' e'4 | %37
"^rit.""^Octave down (altisimo G)" e'(=fga fe dc/d/ |"^a tempo" e3) (d c2 B2 | A8-) |[M:2/4] A4- | %41
[M:4/4] A8 |] %42
V:2
 [CEG][EG][EG][EG] [CEG][CEG][CEG][CEG] |:[M:2/4] [CEG][CEG] [CDF][B,DF] | %2
[M:4/4] [B,DF][B,DF][B,DF][B,DF] [B,CE][B,CE][A,CE][A,CE] | %3
 [G,CE][G,CE][G,CE][G,CE] [G,CF][G,CF][G,=B,F][G,B,F] | %4
 [G,B,F][G,B,F][G,B,=E][G,B,_F] [A,C_E][A,CE][A,B,D][A,B,D] | %5
 [G,CE][G,CE][A,EF][A,_DF] [G,CG][G,CG][G,=B,F][G,B,F] | [G,CE][G,CE][G,CE][EG] z [CEG][CEG][CEG] | %7
 z G G(=A/G/ AG/^F/ GF/=F/ | _G2 =G6) | z2 z (G/F/ GF/=E/ F[_D_F]/[=D=F]/ | %10
 G2 F) z [DF][DF][DF][C_E] | [CD][CD][CD][CD] [CD][CD][CD][CD] | %12
 [=B,D][G,B,D][G,C]C z [G,C][G,C][F,_B,C] | [E,B,C][F,B,C][G,B,C][B,C] [B,C][B,C][B,C][=A,C] | %14
 [=A,C][A,C][F,B,]B, z [F,B,][F,B,][F,B,] | z4 (=A,B, CD/E/ |[M:2/4] F>)(_G [=E=G]/=A/[D^F] |1 %17
[M:4/4] G3) ([eg]/[df]/ [eg])([df]/[ce]/ f)(e/[=df]/ | %18
 [ceg]) [CEG][EG][EG] [CEG][CEG][CEG][CEG] :|2 G4 z2 z (F/G/ |: %20
 A3) ([FA]/[EG]/ [FA][EG]/[DF]/ [EG][DF]/[EG]/ | A3) ([DF]/[EG]/ [FA]3) ([EG]/F/ | %22
 G3) (F/E/ F3) E/D/ | E3 (c/B/ cB/=A/ B^F/G/ | =A3) (c/B/ cB/A/ B^F/G/ | =A3) (_A/=G/ A3) =G/^F/ | %26
 GE/F/ _G4- G[K:bass](A,/B,/ | C_C/B,/ CG,/A,/ B,2- B,/)(=B,/=C/^C/ | %28
 D_D/C/ D_B,/=B,/ C2 B,G,/A,/ | B,A,/G,/ A,2- A,) A,A,[K:treble] (E/D/ | %30
 E_D/=D/ E2- E)(D/E/ F)E/F/ |[M:2/4] G4- |1[M:4/4] G4 x2 x (F/[EG]/) :|2 %33
 [EG]2 z"^espresivo" (e/d/ e3) c/d/ ||[M:2/4] ed/c/ dB/c/ |[M:4/4] d4 z c/B/ cA/B/ | %36
 c4- c(B/A/ G>F | G>A G2-) G/(A/c/e/ fg | e3) (_d c2 T=B2 | %39
 c3) ([Ac]/[GB]/ [Ac])([GB]/[FA]/ [DB])A/[=GB]/ |[M:2/4] (c4 |[M:4/4] c8) |] %42
V:3
 (C4 B,4) |:[M:2/4] (A,4 |[M:4/4] (G,4 G,2)) (F,2 | E,4) (D,2 ^C,2) | C,4- [F,,C,]2 [B,,,B,,]2 | %5
 [C,,C,]2 z F, E,2 D,2 | z2 z (C/B,/ CB,/=A,/ B,F,/G,/ | =A,3) x x4 | %8
 D,3 (G,/F,/ G,F,/=E,/ F,E,/D,/ | ^C,4- C,) (D,2 =E,/D,/) | (^C,2 D,) __B,/A,/ B,4- | %11
 B, A,/G,/ A,2- A, G,/^F,/ G,2- | G, z z [G,,G,]/[=A,,=A,]/ [B,,-B,]4 | %13
 B,,2 z _G,/F,/ G,3 F,/=E,/ | F,3 ([F,,F,]/[G,,G,]/ [A,,A,]4) | %15
 [=E,G,B,][E,G,B,][_E,G,B,][E,G,B,] [E,_G,]3 [^F,C] |[M:2/4] [F,=B,][^F,E]/=A,/ _B,C |1 %17
[M:4/4][K:treble] z2 z G/F/ [EG]F/E/ FG | [CEG][K:bass] z (C2 B,4) :|2 G,3 (F,/G,/ A,4) |: %20
 x4 A,A, A,A, | A,3 z [F,,C,]4 | [B,,,B,,]4 (D,2 E,F, | E,3) (C/B,/ CB,/=A,/ B,^F,/G,/ | %24
 [C,^F,]3) (C/B,/ CB,/=A,/ B,F,/G,/ | [C,^F,]3) (A,/G,/ [C,A,]3) (G,/F,/ | %26
 G,)(E,/G,/) x2 x3 A,,/B,,/ | C,_C,/B,,/ C,G,,/C,/ B,,2- B,,/(=B,,/=C,/^C,/ | %28
 D,_D,/C,/ D,B,,/=B,,/ C,2 B,,2 | [C,,C,]2 [F,,,F,,]2) (C,2 D,E, | G,F, E,4) (D,^C,/D,/ | %31
[M:2/4] E,F, ^F,G,- |1[M:4/4] G,3) (F,/G,/ A,4) :|2 (([C,G,] [CE]))[CE][CE] CC CC || %34
[M:2/4] CC CB, |[M:4/4] G,8 | G,G,G,G, G,G,F,F, | G,G, B,B, A,A, !arpeggio![A,D][A,C]/D/ | %38
 [C,G,E]2 x2 x2 x x | (A,/G,/A,/B,/ C/_D/C/B,/ C)(B, B,)C |[M:2/4] C4 |[M:4/4] x8 |] %42
V:4
 x8 |:[M:2/4] x4 |[M:4/4] x8 | x8 | x8 | x2 F,,2 G,,4 | [C,,C,]4 x4 | [C,,C,]4 C,2 D,E, | %8
 G,,4- G,, z z2 | G,,8 | F,,2- F,, z z4 | z2 [F,,,F,,]4 [=E,,,=E,,]2 | [E,,,E,,]4 (E,,3 F,, | %13
 G,,F,,) [E,,,E,,]4 [D,,,D,,]2 | [_D,,,_D,,]4 D,,4 | (^C,,2 =C,,2) C,B,,=A,,_A,, | %16
[M:2/4] G,,[C,E,] [^C,=E,]D, |1[M:4/4][K:treble] G,G,G,G,- G, G,2 G, | x[K:bass] x7 :|2 x8 |: %20
 (G,,, [G,,D,]2) A,/G,/ A,G,/F,/ G,F,/G,/ | z (G,,, [G,,D,]2) x4 | x4 G,,4 | C,,3 x5 | z2 C,,4 x2 | %25
 z2 C,,2 z2 C,,2 | (C,2 B,,2 A,,3) z | _D,,4 =D,,4 | E,,4 =E,,2 D,,^C,, | x8 | F,,6 x2 | %31
[M:2/4] (G,,4 |1[M:4/4] C,3) x5 :|2 x4 B,4 ||[M:2/4] A,4 |[M:4/4] B,B,B,B, A,A,A,A, | %36
 F,4 D,2 _D,2 | C,4 [F,,C,]2 !arpeggio!B,,2 | C,2 (F,E,/F,/ G,4) | x4 A,B,/G,/ ^F,/G,/(A,/G,/ | %40
[M:2/4] F,/D,/E,/F,/ G,/A,/G, |[M:4/4] C,>)(G, C6) |] %42
V:5
 x8 |:[M:2/4] x4 |[M:4/4] x8 | x8 | x8 | x8 | x8 | x [CE] [CE][=A,E] [A,E][A,E] [A,D][A,C] | %8
 [=A,B,D][A,B,D] [B,D][B,D] [B,D][B,D] [B,D][B,D] | [B,=E][B,E] [B,E][B,E] [B,E]B, B,B, | %10
 [=A,=E][A,E] [A,D][DF] z4 | x8 | x8 | x8 | x8 | x8 |[M:2/4] x4 |1[M:4/4] [B,D]3 =B _B=A _A2 | %18
 x8 :|2 [B,D][B,D] [B,D]2 z [=B,DF][B,DF][B,D] |: [=B,DF][B,DF] [B,DF]_C CB, B,C | %21
 [=B,DF][B,DF] [B,DF]_C [A,=C][A,C] [A,C][A,C] | %22
 [A,B,D][A,B,D] [A,B,D][A,B,] [G,B,][G,B,] [G,=B,][G,B,] | [G,C][G,C] [G,C][EG] [EG][EG] [EG][CE] | %24
 [=A,E_G][__B,EG] [B,EG][E=G] [EG][EG] [EG][CE] | %25
 [=A,E_G][__B,EG] [B,EG][E^F] [E_G][_A,EG] [A,EF]C | %26
 [CE]C [_G,CE][G,CE] [G,CE][G,CE] [G,CE][K:bass] G, | [F,A,]3 F, [F,G,][F,G,] [F,G,][F,G,] | %28
 [G,=B,]3 G, [G,B,][G,B,] [F,A,]F, | [=E,G,]E, [C,F,][C,F,] z F,F,[K:treble] [A,C] | %30
 [A,_C][A,=B,] [A,=C][A,C] [A,C][A,C] [A,C][A,_C] |[M:2/4] [G,C][A,CF] [=A,CE][=B,DF] |1 %32
[M:4/4] [CE][CE] [CE] z z [B,DF][B,DF][B,DF] :|2 C2 x G [EG][EG] [EG][EG] || %34
[M:2/4] [EG][EG] [DF][DF] |[M:4/4] [DF][DF][DF][DF] [CE][CE][CD] z | %36
 [CE][CE][CE][CE] [CF][CF] =B,B, | [B,F][B,F] [C=E][CE] [C_E][CE] AA | %38
 [Gc][Gc] [FA][FA] [EG][EG] [DF][DF] | [CE][DF] [EG]=E _ED _G/F/=E |[M:2/4] [FA][FA] [EG][DF] | %41
[M:4/4] [CE][EG] [EG]6 |] %42
V:6
 x8 |:[M:2/4] x4 |[M:4/4] x8 | x8 | x8 | x8 | x8 | x8 | x8 | x8 | x8 | x8 | x8 | x8 | x8 | x8 | %16
[M:2/4] x4 |1[M:4/4] x4 x2 _d/c/=B | x8 :|2 x8 |: x8 | x8 | x8 | x8 | x8 | x8 | x7[K:bass] x | x8 | %28
 x8 | x7[K:treble] x | x8 |[M:2/4] x4 |1[M:4/4] x8 :|2 x8 ||[M:2/4] x4 |[M:4/4] x8 | x8 | x8 | x8 | %39
 x8 |[M:2/4] x4 |[M:4/4] x8 |] %42
V:7
 x8 |:[M:2/4] x4 |[M:4/4] x8 | x8 | x8 | x8 | x8 | x8 | x8 | x8 | x8 | x8 | x8 | x8 | x8 | x8 | %16
[M:2/4] x4 |1[M:4/4][K:treble] x4 x2 ^C/D/ E/D/ | x[K:bass] x7 :|2 x8 |: x8 | x8 | x8 | x8 | x8 | %25
 x8 | x8 | x8 | x8 | x8 | x8 |[M:2/4] x4 |1[M:4/4] x8 :|2 x8 ||[M:2/4] x4 |[M:4/4] x8 | x8 | x8 | %38
 x8 | x8 |[M:2/4] x4 |[M:4/4] x8 |] %42

